X:39
T:Hungarian Waltz. WHG.038
R:waltz
S:W.H.Giles MS,Bampton,Oxfordshire,1839p36
O:England
H:donated by Mrs W.R.Kettlewell to VWML,Apr 1927.
A:Bampton, Oxfordshire
Z:PJHeadford – VMP 2009
M:3/8
L:1/8
Q:3/8=50
K:G
G|gf G|ed G|cB G|ed G|\
gf G|ed G|d c/B/ A|G2:|
|:B|cB G|ed G|cB G|ed G|\
gf G|ed G|d c/B/ A|G2:|
d|dba|gBd|cAg|gbd|\
dba|gBd|cAf|g2″ DC”|]

